X: 38464
T: Staying Home
R: jig
M: 6/8
K: Emajor
|:EBe cBG|Bed efg|cag fec|Bga fde|
EBe cBG|Bed eFG|ABe deB|"1." ABe dBe:|
"2." ABe feg|:ceg bef-|fga gec|ABe BeG-|
GBe fed|ceg bef-|fga geg|"1." bc'b fge|
fec Bed:|"2." bag age|Bce fde||

